X: 214
T: A Great Big Sea Hove In Long Beach
R: polka
M: 2/4
K: Fmajor
F|CF FF|EG C2|Cc c>A|
(B/A/G/F/) EC-|C2 zC|
cc cA|B BBA|BA GF|
ED CC/C/|FF G/G/E|F2 z2|

